packages/design-assets/icons/16px/Charts/Bar Chart.svg

<svg width="16" height="16" xmlns="http://www.w3.org/2000/svg"><path d="M2 0v16H0V0h2zm14 0v4H4V0h12zm-4 6v4H4V6h8zm-4 6v4H4v-4h4z" fill="#818F99" fill-rule="evenodd"/></svg>

<?xml version="1.0" encoding="UTF-8"?>
<svg width="16px" height="16px" viewBox="0 0 16 16" version="1.1" xmlns="http://www.w3.org/2000/svg" xmlns:xlink="http://www.w3.org/1999/xlink">
    <!-- Generator: Sketch 54.1 (76490) - https://sketchapp.com -->
    <title>Icons/16px/Charts/Bar Chart</title>
    <desc>Created with Sketch.</desc>
    <g id="Icons/16px/Charts/Bar-Chart" stroke="none" stroke-width="1" fill="none" fill-rule="evenodd">
        <path d="M2,-1.46957616e-15 L2,16 L4.08562073e-14,16 L4.08562073e-14,-1.46957616e-15 L2,-1.46957616e-15 Z M16,-8.03442344e-16 L16,4 L4,4 L4,-8.03442344e-16 L16,-8.03442344e-16 Z M12,6 L12,10 L4,10 L4,6 L12,6 Z M8,12 L8,16 L4,16 L4,12 L8,12 Z" id="i-16-chart-bar" fill="#818F99"></path>
    </g>
</svg>
